X: 08029
T: DAVE'S HORNPIPE
C: Bob McQuillen 27 Jan 91
B: Bob's Note Book 8 #29
%R: hornpipe, reel
Z: 2021 John Chambers <jc:trillian.mit.edu>
M: C
L: 1/8
K: D
FE \
| DFAB AFAd | cdec d2FA | GBAG FAdf | edcB AGFE |\
| DFAB AFAd | cdec dFAd | BGBd cAce | d2f2 d2 :|
|: fe \
| d2fa gfed | edcB A2de | fafd Bded | c2A2 A2FA |\
| BABc d2dB | ABAG F2FE | DFAd efga | f2d2 d2 :|
%%begintext align
%% Dave Cousineau
%% from Somersworth, NH, plays great bass with
%% the Lammprey River Band. You want to
%% hear something decent, you listen to _that_ outfit
%% when they get fired up! Great music!
%%endtext

%%sep 1 1 500

%%sep 1 1 500

